!!!!SEGMENT: pl-kk--kk-i-6--009_anonim--et-in-terra.krn
!!!id: 16xx:964
!!!COM: Anonim
!!!COM-rism: pe30004985
!!!CDT:
!!!CNT:
!!!OTL: Et in terra
!!!PDT:
!!!SMS-siglum: PL-Kk
!!!SMS-shelfmark: Kk.I.6
!!!NIFC-rismID: 1001135607
!!!URL-scan: http://repozytorium.nifc.pl/skany/pl-kk-nut--i-6
!!!ONB-nifc: UWAGA: C (skan 0006-0008, s. 9-12), T (skan 0105-0107, s. 14-18), B (skan 0216-0218, s. 13-17) Następny utwór: Tollite portas
!!!SMS-variant:
!!!SMS-altvar:
**kern	**text	**kern	**text	**kern	**text
*part3	*part3	*part2	*part2	*part1	*part1
*staff3	*staff3	*staff2	*staff2	*staff1	*staff1
*group1	*	*group1	*	*group1	*
*I"Baſsus.	*	*I"Tenor.	*	*I"Cantus.	*
*I'B	*	*I'T	*	*I'S	*
*clefF4	*	*clefC4	*	*clefC4	*
*k[]	*	*k[]	*	*k[]	*
*M2/1	*	*M2/1	*	*M2/1	*
*met(C|)	*	*met(C|)	*	*met(C|)	*
*all\middle	*	*all\middle	*	*all\middle	*
=1-	=1-	=1-	=1-	=1-	=1-
*2\right	*	*2\right	*	*	*
2r	.	2d\	ET	1G,<	ET
2G\	ET	2e\	in	.	.
*	*	*	*	*lig	*
2A\	in	2c\	ter-	1c	in
2F\	ter-	2f\	-ra	.	.
=2-	=2-	=2-	=2-	=2-	=2-
1G	-ra	1.d	pax	1B	.
*	*	*	*	*Xlig	*
*	*	*	*ij	*lig	*
1D	pax	.	.	1A	.
.	.	2d\	ET	.	.
=3-	=3-	=3-	=3-	=3-	=3-
2r	.	2B\	in	1G,<	.
*	*ij	*	*	*	*
1G	ET	2B\	ter-	.	.
*	*	*	*	*Xlig	*
*	*	*	*	*lig	*
.	.	2d\	-ra	1B	ter-
2G\	in	2G/	pax	.	.
*	*	*	*Xij	*	*
=4-	=4-	=4-	=4-	=4-	=4-
2F\	ter-	4A/	ho-	1c	.
.	.	4B\	.	.	.
2A\	-ra	1c	.	.	.
*	*	*	*	*Xlig	*
0G	pax	.	.	1d,<	-ra
.	.	4B\	.	.	.
.	.	4A/	.	.	.
=5-	=5-	=5-	=5-	=5-	=5-
.	.	2B\	-mi-	1d	pax
!	!	!LO:SIC:v:t=custos c	!	!	!
.	.	2B\	-ni-	.	.
*	*	*	*	*lig	*
!	!	!LO:LB:g=original	!	!	!
2r	.	2c,<\	-bus	1c	.
2C/	ET	1G/	Et	.	.
=6-	=6-	=6-	=6-	=6-	=6-
2G\	in	.	.	1B,<	.
1G	ter-	2d\	in	.	.
*	*	*	*	*Xlig	*
!	!	!LO:TX:t=P:problem:♯ above	!	!	!
*	*	*	*	*lig	*
.	.	2c#X\	ter-	1A	ho-
!LO:SIC:v:t=custos E	!	!	!	!	!
2F\	-ra	2d\	-ra	.	.
!LO:PB:g=original	!	!	!	!	!
=7-	=7-	=7-	=7-	=7-	=7-
1E,<	pax	2e\	pax	1B	.
.	.	1e	ho-	.	.
*	*Xij	*	*	*Xlig	*
*	*	*	*	*lig	*
2.C/	ho-	.	.	1c	-mi-
.	.	1e\	-mi-	.	.
4D/	.	.	.	.	.
=8-	=8-	=8-	=8-	=8-	=8-
4E\	.	.	.	1B	.
4F\	.	.	.	.	.
2G\	-mi-	2d\	-ni-	.	.
*	*	*	*	*Xlig	*
*	*	*	*	*lig	*
1D	-ni-	2d,<\	-bus	1A	-ni-
.	.	2d\	bo-	.	.
=9-	=9-	=9-	=9-	=9-	=9-
2GG/	-bus	2B\	-nae	1G	.
4C/	bo-	1cny	vo-	.	.
4D/	.	.	.	.	.
*	*	*	*	*Xlig	*
!	!	!	!	!LO:SIC:v:t=custos D	!
4E\	.	.	.	1G	-bus
4F\	.	.	.	.	.
1G\	.	2B\	-lun-	.	.
!	!	!	!	!LO:PB:g=original	!
=10-	=10-	=10-	=10-	=10-	=10-
.	.	1A	-ta-	1D	bo-
!LO:TX:t=P:problem:♯ below	!	!	!	!	!
2F#X\	-nae	.	.	.	.
2G\	Vo-	2B\	-tis	1G,<	-nae
*	*	*	*ij	*	*
2E\	-lun-	1G/	bo-	.	.
=11-	=11-	=11-	=11-	=11-	=11-
*	*	*	*	*lig	*
1D	-ta-	.	.	1A	vo-
!	!	!LO:TX:t=P:problem:♯ below	!	!	!
.	.	2F#X/	-nae	.	.
2GG,</	-tis	2G/	vo-	1G	.
!LO:SIC:v:t=custos D	!	!LO:SIC:v:t=custos F	!	!	!
2C/	bo-	2E/	-lun-	.	.
*	*	*	*	*Xlig	*
!	!	!LO:LB:g=original	!	!	!
=12-	=12-	=12-	=12-	=12-	=12-
*	*	*	*	*lig	*
2D/	-nae	4Fny/	-ta-	1F	-lun-
.	.	4G/	.	.	.
!LO:LB:g=original	!	!	!	!	!
2.AA/	Vo-	1A	.	.	.
.	.	.	.	1E	.
4BB/	-lun-	.	.	.	.
2C/	-ta-	2G/	.	.	.
*	*	*	*	*Xlig	*
=13-	=13-	=13-	=13-	=13-	=13-
1AA	.	0G	tis	1D	.
*	*	*	*Xij	*lig	*
2C,</	-tis	.	.	1E	-ta-
2C/	lau-	.	.	.	.
=14-	=14-	=14-	=14-	=14-	=14-
2FF/	-da-	1A	Lau-	1F	.
2FF/	-mus	.	.	.	.
*	*	*	*	*Xlig	*
1C	te	2c\	-da-	1G,<	-tis
.	.	2c\	-mus	.	.
=15-	=15-	=15-	=15-	=15-	=15-
*	*ij	*	*	*	*
1Fny	lau-	2c\	te	1A	lau-
*	*	*	*ij	*	*
.	.	2f\	Lau-	.	.
*	*	*	*	*lig	*
2G\	-da-	2d\	-da-	1B	-da-
2G\	-mus	2d\	-mus	.	.
=16-	=16-	=16-	=16-	=16-	=16-
1C	te	1e	te	1c	.
*	*	*	*	*Xlig	*
1.G	lau-	1d	Lau-	1B	.
=17-	=17-	=17-	=17-	=17-	=17-
.	.	2c\	-da-	1A	.
2F\	-da-	2d\	-mus	.	.
*lig	*	*	*	*	*
1E	-mus	4e\	te	1G	.
*	*	*	*Xij	*	*
.	.	2B\	lau-	.	.
.	.	4c\	.	.	.
=18-	=18-	=18-	=18-	=18-	=18-
*	*	*	*	*lig	*
1D	.	2.d\	-da-	1A	-mus
!	!	!LO:SIC:v:t=custos B	!	!	!
.	.	4c\	.	.	.
*Xlig	*	*	*	*	*
!	!	!LO:PB:g=original	!	!	!
2GG,</	te	2B\	-mus	1G	.
*	*Xij	*	*	*	*
1C/	Be-	2c\	te	.	.
*	*	*	*	*Xlig	*
=19-	=19-	=19-	=19-	=19-	=19-
*	*	*	*	*lig	*
.	.	2.G/	Be-	1E	te
!LO:SIC:v:t=custos BB	!	!	!	!	!
2C/	-ne-	.	.	.	.
.	.	4A/	-ne-	.	.
!LO:LB:g=original	!	!	!	!LO:SIC:v:t=custos D	!
1.BB-X	-di-	1.B-X	-di-	1F	.
*	*	*	*	*Xlig	*
!	!	!	!	!LO:LB:g=original	!
=20-	=20-	=20-	=20-	=20-	=20-
.	.	.	.	1D	be-
2BB-X/	-ci-	2B-\	-ci-	.	.
1GG	-mus	1B-	-mus	1G	-ne-
=21-	=21-	=21-	=21-	=21-	=21-
*	*	*	*	*lig	*
1D	te	2A/	te	1A	-di-
*	*ij	*	*ij	*	*
.	.	2d\	Be-	.	.
2E\	Be-	2Bny\	-ne-	1G	.
2C/	-ne-	2c\	-di-	.	.
*	*	*	*	*Xlig	*
=22-	=22-	=22-	=22-	=22-	=22-
*	*	*	*	*lig	*
1D	-di-	2A/	-ci-	1F	-ci-
.	.	2d\	-mus	.	.
2AA/	-ci-	2e,<\	te	1E	.
*	*	*	*Xij	*	*
2C/	-mus	2E/	A-	.	.
*	*	*	*	*Xlig	*
=23-	=23-	=23-	=23-	=23-	=23-
1GG,<	te	2G/	-do-	1D	.
!	!	!LO:SIC:v:t=custos G	!	!	!
.	.	2G/	-ra-	.	.
*	*Xij	*	*	*lig	*
!	!	!LO:LB:g=original	!	!	!
2C/	A-	1G	-mus	1E	-mus
1E\	-do-	.	.	.	.
=24-	=24-	=24-	=24-	=24-	=24-
.	.	1A,<	te	1F	.
1D	-ra-	.	.	.	.
*	*	*	*ij	*Xlig	*
.	.	2B\	A-	1G,<	te
2C/	.	2c\	-do-	.	.
=25-	=25-	=25-	=25-	=25-	=25-
1BBny	-mus	1d	-ra-	1B	A-
2AA,</	te	2c\	-mus	1E	-do-
*	*ij	*	*	*	*
1E\	A-	2B\	te	.	.
*	*	*	*Xij	*	*
=26-	=26-	=26-	=26-	=26-	=26-
*	*	*	*	*lig	*
.	.	2rF	.	1B	-ra-
2E\	-do-	2E/	A-	.	.
4AA/	-ra-	2E/	-do-	1c	.
4BB/	.	.	.	.	.
4C/	.	4E/	-ra-	.	.
!LO:SIC:v:t=custos E	!	!	!	!	!
4D/	.	4F/	.	.	.
*	*	*	*	*Xlig	*
!LO:LB:g=original	!	!	!	!	!
=27-	=27-	=27-	=27-	=27-	=27-
*	*	*	*	*lig	*
4E\	.	4G/	.	1B	.
4F\	.	4A/	.	.	.
1G	.	4B\	.	.	.
.	.	4c\	.	.	.
.	.	4d\	.	1A	.
.	.	4A/	.	.	.
2F\	.	1d\	.	.	.
*	*	*	*	*Xlig	*
=28-	=28-	=28-	=28-	=28-	=28-
1E	-mus	.	.	1G	.
!	!	!LO:TX:t=P:problem:♯ above	!	!	!
.	.	2c#X\	-mus	.	.
*	*	*	*	*lig	*
!	!	!LO:SIC:v:t=custos B	!	!	!
1D	te	1d	te	1A	mus
*	*Xij	*	*	*	*
!	!	!LO:LB:g=original	!	!	!
=29-	=29-	=29-	=29-	=29-	=29-
!	!	!	!	!LO:SIC:v:t=custos E	!
2rBB	.	2B\	a-	1G	.
2C/	A-	2cny\	-do-	.	.
*	*	*	*	*Xlig	*
!	!	!	!	!LO:LB:g=original	!
2C/	-do-	1G	-ra-	1E	te
2BB/	-ra-	.	.	.	.
=30-	=30-	=30-	=30-	=30-	=30-
*	*	*	*	*lig	*
1AA	-mus	1c	-mus	1F	.
2GG,</	te	1B,<	te	1G,<	.
2GG/	glo-	.	.	.	.
*	*	*	*	*Xlig	*
=31-	=31-	=31-	=31-	=31-	=31-
2C/	-ri-	2c\	glo-	1G	glo-
2GG/	-fi-	2B\	-ri-	.	.
2C/	-ca-	2e\	-fi-	1A	-ri-
2D/	-mus	2d\	-ca-	.	.
=32-	=32-	=32-	=32-	=32-	=32-
2GG/	te	2B\	-mus	1G	-fi-
*	*ij	*	*	*	*
1C	glo-	2c,<\	te	.	.
*	*	*	*ij	*lig	*
.	.	2e\	glo-	1A	-ca-
1D\	-ri-	1d\	-ri-	.	.
=33-	=33-	=33-	=33-	=33-	=33-
.	.	.	.	1B	.
1E	-fi-	2G/	-fi-	.	.
*	*	*	*	*Xlig	*
*	*	*	*	*lig	*
.	.	2c\	-ca-	1c	.
!LO:SIC:v:t=custos G	!	!	!	!	!
2F\	-ca-	2A/	-mus	.	.
!LO:LB:g=original	!	!	!	!	!
=34-	=34-	=34-	=34-	=34-	=34-
1G	.	2d,<\	te	1B	.
*	*	*	*Xij	*	*
.	.	2d\	glo-	.	.
*	*	*	*	*Xlig	*
*	*	*	*	*lig	*
1D	-mus	2.d\	-ri-	1A	mus
!	!	!LO:SIC:v:t=custos d	!	!	!
.	.	4d\	-fi-	.	.
!	!	!LO:LB:g=original	!	!	!
=35-	=35-	=35-	=35-	=35-	=35-
0GG;;	te	2d\	-ca-	1G	.
*	*Xij	*	*	*	*
.	.	2B\	-mus	.	.
*	*	*	*	*Xlig	*
.	.	1B;;	te	1G;;	te
=36-	=36-	=36-	=36-	=36-	=36-
1G	Gra-	1d	Gra-	1B	Gra-
2F\	-ti-	4A/	-ti-	1c	-ti-
.	.	4c\	-as	.	.
2E\	-as	2G/	a-	.	.
=37-	=37-	=37-	=37-	=37-	=37-
1D	a-	2A/	-gi-	1d	-as
.	.	1d	-mus	.	.
*	*	*	*	*lig	*
1A	-gi-	.	.	1e	a-
!	!	!LO:TX:t=P:problem:♯ above	!	!	!
.	.	2c#X\	ti-	.	.
=38-	=38-	=38-	=38-	=38-	=38-
2D/	-mus	2d\	-bi	1d	.
4D/	ti-	1f	a-	.	.
4E\	.	.	.	.	.
*	*	*	*	*Xlig	*
*	*	*	*	*lig	*
4F\	.	.	.	1c	-gi-
4G\	.	.	.	.	.
2A\	.	2e\	-gi-	.	.
=39-	=39-	=39-	=39-	=39-	=39-
!	!	!	!	!LO:SIC:v:t=custos A	!
1E	.	1e	-mus	1B	.
*	*	*	*	*Xlig	*
*	*	*	*	*lig	*
!	!	!	!	!LO:LB:g=original	!
2AA/	bi	2.cny\	ti-	1A	-mus
2F\	pro-	.	.	.	.
.	.	4d\	-bi	.	.
=40-	=40-	=40-	=40-	=40-	=40-
1E	-pter	2e\	pro-	1B,<	.
.	.	2e\	-pter	.	.
*lig	*	*	*	*Xlig	*
1D	ma-	2A/	ma-	1d	ti-
!	!	!LO:SIC:v:t=custos c	!	!	!
.	.	2B\	.	.	.
!	!	!LO:LB:g=original	!	!	!
=41-	=41-	=41-	=41-	=41-	=41-
1C	.	1c	-gnam	1G,<	-bi
*Xlig	*	*	*	*	*
!LO:SIC:v:t=custos C	!	!	!	!	!
1G	-gnam	1r	.	1B	pro-
!LO:LB:g=original	!	!	!	!	!
=42-	=42-	=42-	=42-	=42-	=42-
*	*	*	*ij	*	*
2r	.	1G	pro-	1E,<	-pter
1C	pro-	.	.	.	.
!	!	!LO:TX:t=P:problem:♯ below	!	!	!
*	*	*	*	*lig	*
.	.	2F#X/	-pter	1D	ma-
2BB/	-pter	2G/	ma-	.	.
=43-	=43-	=43-	=43-	=43-	=43-
*lig	*	*	*	*	*
1AA	ma-	1A	.	1E	.
*	*	*	*	*Xlig	*
1GG	.	2D,</	-gnam	1G,<	-gnam
*	*	*	*Xij	*	*
.	.	1G/	glo-	.	.
*Xlig	*	*	*	*	*
=44-	=44-	=44-	=44-	=44-	=44-
*	*	*	*	*lig	*
1D	.	.	.	1A	glo-
!	!	!LO:TX:t=P:problem:♯ below	!	!	!
.	.	2F#X/	-ri-	.	.
1GG,<	-gnam	2G/	-am	1G	.
*	*	*	*ij	*	*
.	.	1d\	glo-	.	.
*	*	*	*	*Xlig	*
=45-	=45-	=45-	=45-	=45-	=45-
*	*	*	*	*lig	*
1D	glo-	.	.	1F	-ri-
.	.	2A/	-ri-	.	.
2AA/	-ri-	2c\	-am	1E	.
*	*	*	*Xij	*	*
2BB/	-am	4G/	tu-	.	.
.	.	4A/	.	.	.
*	*	*	*	*Xlig	*
=46-	=46-	=46-	=46-	=46-	=46-
1GG	tu-	4B\	.	1D	-am
.	.	2c\	.	.	.
.	.	4B\	.	.	.
!	!	!LO:SIC:v:t=custos B	!	!	!
0C;<	-am	0c;<	-am	1E	tu-
!	!	!LO:LB:g=original	!	!	!
=47-	=47-	=47-	=47-	=47-	=47-
.	.	.	.	1E;;	-am
2r	.	2.B\	Do-	1G	Do-
1G\	Do-	.	.	.	.
.	.	8A/L	.	.	.
.	.	8G/J	.	.	.
=48-	=48-	=48-	=48-	=48-	=48-
.	.	2A/	.	1D	-mi-
2F\	-mi-	2A/	-mi-	.	.
1E	-ne	1B	-ne	1G,<	-ne
=49-	=49-	=49-	=49-	=49-	=49-
*lig	*	*	*	*	*
!	!	!	!	!LO:SIC:v:t=custos F	!
1C	De-	1c	De-	1G	De-
*	*	*	*	*lig	*
!	!	!	!	!LO:LB:g=original	!
1D	.	1A	-us	1F	-us
*Xlig	*	*	*	*	*
=50-	=50-	=50-	=50-	=50-	=50-
!LO:SIC:v:t=custos BB	!	!	!	!	!
1AA	-us	1A	Rex	1E,<	.
*	*	*	*	*Xlig	*
!LO:PB:g=original	!	!	!	!	!
1BB-X	Rex	1Fny	Cae-	1D,<	Rex
=51-	=51-	=51-	=51-	=51-	=51-
1GG	Cae-	1B-X	-le-	1G	Cae-
*	*	*	*	*lig	*
1D	-le-	1A	-stis	1F	-le-
=52-	=52-	=52-	=52-	=52-	=52-
2GG,</	-stis	2r	.	1G	.
1C	De-	1c	De-	.	.
*	*	*	*	*Xlig	*
.	.	.	.	1G,<	-ſtis
2E\	-us	2G/	-us	.	.
=53-	=53-	=53-	=53-	=53-	=53-
1D	Pa-	1d	Pa-	1A	De-
2C/	-ter	1G	-ter	1c,<	-us
1C/	Om-	.	.	.	.
=54-	=54-	=54-	=54-	=54-	=54-
.	.	2c\	Om-	1G	Pa-
!	!	!LO:SIC:v:t=custos A	!	!	!
2C/	-ni-	2c\	-ni-	.	.
*	*	*	*	*lig	*
!	!	!LO:PB:g=original	!	!	!
1D	-po-	1A	-po-	1F	-ter
=55-	=55-	=55-	=55-	=55-	=55-
1AA	-tens	1A	-tens	1E,<	.
*	*	*	*	*Xlig	*
*	*	*	*	*lig	*
2rBB	.	2.A/	Om-	1D	O-
2D/	Om-	.	.	.	.
.	.	4Bny\	-ni-	.	.
=56-	=56-	=56-	=56-	=56-	=56-
2AA/	-ni-	1c	-po-	1E	.
2C/	.	.	.	.	.
*	*	*	*	*Xlig	*
1GG	-po-	1B	-tens,	1G	.
=57-	=57-	=57-	=57-	=57-	=57-
2D,</	-tens	2rF	.	1F	-mni-
!LO:SIC:v:t=custos AA	!	!	!	!	!
*	*ij	*	*	*	*
2D/	Om-	1A	Om-	.	.
!LO:LB:g=original	!	!	!	!	!
2AA/	-ni-	.	.	1E	-po-
2C/	.	4E/	-ni-	.	.
.	.	4F/	.	.	.
=58-	=58-	=58-	=58-	=58-	=58-
1GG	-po-	1G	-po-	1D	.
!	!	!	!	!LO:SIC:v:t=custos G	!
1C;;	-tens	1G;;	-tens	1E;	-tens.
*	*Xij	*	*	*	*
!	!	!	!	!LO:LB:g=original	!
=59-	=59-	=59-	=59-	=59-	=59-
1G	Do-	2.B\	Do-	1G	Do-
.	.	4c\	-mi-	.	.
2A\	-mi-	2d\	-ne	1D	-mi-
2A\	-ne	4d\	fi-	.	.
.	.	4c\	.	.	.
=60-	=60-	=60-	=60-	=60-	=60-
4G\	fi-	4B\	.	1G,<	-ne
4F\	.	4A/	.	.	.
4E\	.	2B\	.	.	.
4D/	.	.	.	.	.
!	!	!LO:SIC:v:t=custos A	!	!	!
4C/	.	1c	.	1G	fi-
4D/	.	.	.	.	.
4E\	.	.	.	.	.
4C/	.	.	.	.	.
!	!	!LO:LB:g=original	!	!	!
=61-	=61-	=61-	=61-	=61-	=61-
1D	.	2A,</	-li	1F,<	-li
.	.	2A/	V-	.	.
2AA/	-li	2c\	-ni-	1A	V-
1A\	V-	2c\	-ge-	.	.
=62-	=62-	=62-	=62-	=62-	=62-
.	.	2B\	-ni-	1B	-ni-
!LO:TX:t=P:problem:♯ below	!	!	!	!	!
2G#X\	-ni-	2E/	-te	.	.
*	*	*	*	*lig	*
2A\	-ge-	2rF	.	1c	-ge-
!LO:SIC:v:t=custos E	!	!	!	!	!
2A\	-ni-	1e\	Je-	.	.
!LO:LB:g=original	!	!	!	!	!
=63-	=63-	=63-	=63-	=63-	=63-
1E	-te	.	.	1B	.
.	.	2e\	-su	.	.
*lig	*	*	*	*Xlig	*
*	*	*	*	*lig	*
1F	Je-	0c	Chri-	1A	-ni-
=64-	=64-	=64-	=64-	=64-	=64-
1C	.	.	.	1G	.
*Xlig	*	*	*	*Xlig	*
1C	-su	1c	-ſte	1G,<	-te
=65-	=65-	=65-	=65-	=65-	=65-
*	*	*	*ij	*	*
0D	Chri-	1A	Je-	1F	Je-
.	.	2d\	-su	1A	-ſu
.	.	2.d\	Chri-	.	.
=66-	=66-	=66-	=66-	=66-	=66-
1AA	-ſte	.	.	1A	Chri-
.	.	8c\L	.	.	.
.	.	8B\J	.	.	.
!	!	!LO:TX:t=P:problem:♯ above	!	!	!
.	.	2c#X\	.	.	.
1rBB	.	2d\	.	1D	-ſte
!	!	!LO:SIC:v:t=custos c	!	!	!
.	.	2A/	.	.	.
!	!	!LO:LB:g=original	!	!	!
=67-	=67-	=67-	=67-	=67-	=67-
!	!	!	!	!LO:SIC:v:t=custos F	!
1C	Je-	2cny,<\	-ſte	1G	[Chri]-
*	*	*	*Xij	*	*
.	.	2c\	Je-	.	.
*	*	*	*	*lig	*
!	!	!	!	!LO:PB:g=original	!
2.FF/	-su	2c\	-ſu	1F	.
.	.	1A\	Chri-	.	.
4GG/	.	.	.	.	.
=68-	=68-	=68-	=68-	=68-	=68-
4AA/	.	.	.	1E	.
4BBny/	.	.	.	.	.
1C	Chri-	2G/	.	.	.
*	*	*	*	*Xlig	*
*	*	*	*	*lig	*
.	.	2A,</	-ſte	1D	.
*	*	*	*ij	*	*
2BB/	.	2B\	Je-	.	.
=69-	=69-	=69-	=69-	=69-	=69-
0AA	.	2.c\	-ſu	1E	.
.	.	4B\	.	.	.
*	*	*	*	*Xlig	*
.	.	2A/	Chri-	1F	.
.	.	2c\	.	.	.
=70-	=70-	=70-	=70-	=70-	=70-
1GG;	-ſte	1B;;	-ſte	1G;;	-ſte
*	*	*	*Xij	*	*
1Gny	Do-	2.B\	Do-	1d	Do-
.	.	4B\	-mi-	.	.
=71-	=71-	=71-	=71-	=71-	=71-
2F\	-mi-	1A	-ne	1c	-mi-
2A\	-ne	.	.	.	.
!LO:SIC:v:t=custos C	!	!	!	!	!
1G	De-	1d	De-	1B,<	-ne
!LO:LB:g=original	!	!	!	!	!
=72-	=72-	=72-	=72-	=72-	=72-
1C	-us	1e	-us,<	1c	De-
*	*	*	*	*lig	*
1D	De-	2.d\	A-	1A	-us
!	!	!LO:SIC:v:t=custos B	!	!	!
.	.	4c\	.	.	.
!	!	!LO:LB:g=original	!	!	!
=73-	=73-	=73-	=73-	=73-	=73-
2GG/	-us	1B	.	1G	.
1G	A-	.	.	.	.
*	*	*	*	*Xlig	*
.	.	2c\	-gnus	1A,<	.
2F\	-gnus	4c\	De-	.	.
.	.	4d\	.	.	.
=74-	=74-	=74-	=74-	=74-	=74-
*	*	*lig	*	*	*
1E	De-	1e	.	1B	A-
1D	-i	1A	.	1d,<	-gnus
*	*	*Xlig	*	*	*
=75-	=75-	=75-	=75-	=75-	=75-
*	*	*	*	*lig	*
4C/	A-	2c\	-i	1e	De-
4D/	.	.	.	.	.
4E\	.	4G/	A-	.	.
4F\	.	4A/	.	.	.
4G\	.	4B\	.	1d	.
4A\	.	4c\	.	.	.
4B\	.	4d\	.	.	.
4G\	.	4B\	.	.	.
*	*	*	*	*Xlig	*
=76-	=76-	=76-	=76-	=76-	=76-
4A\	.	4c\	.	1c	.
4B\	.	4d\	.	.	.
2c\	-gnus	4e\	.	.	.
.	.	4c\	-gnus	.	.
*	*	*	*	*lig	*
1G	De-	2d\	De-	1B	.
.	.	2G/	-i	.	.
=77-	=77-	=77-	=77-	=77-	=77-
!	!	!	!	!LO:SIC:v:t=custos d	!
1C	-i	2r	.	1c	.
.	.	1c	fi-	.	.
*	*	*	*	*Xlig	*
!	!	!	!	!LO:LB:g=original	!
1.G	fi-	.	.	1d,<	-i
.	.	4B\	.	.	.
!	!	!LO:SIC:v:t=custos B	!	!	!
.	.	4A/	.	.	.
!	!	!LO:LB:g=original	!	!	!
=78-	=78-	=78-	=78-	=78-	=78-
.	.	2B\	.	1d	fi-
2G\	-li-	2B\	-li-	.	.
2.E\	-us	1B	-us	1G	-li-
!LO:SIC:v:t=custos C	!	!	!	!	!
4D/	.	.	.	.	.
!LO:LB:g=original	!	!	!	!	!
=79-	=79-	=79-	=79-	=79-	=79-
*lig	*	*	*	*	*
1C	Pa-	2.c\	Pa-	1G,<	-us
.	.	4B\	.	.	.
*	*	*	*	*lig	*
1D	.	1A	.	1F	Pa-
*Xlig	*	*	*	*	*
=80-	=80-	=80-	=80-	=80-	=80-
2GG,</	-tris	2B,<\	-tris	1G	.
1GG	fi-	1B	fi-	.	.
*	*	*	*	*Xlig	*
.	.	.	.	1A,<	-tris
1C/	-li-	1c\	-li-	.	.
=81-	=81-	=81-	=81-	=81-	=81-
.	.	.	.	1G	Qui
2E\	-us	2G/	-us	.	.
0D	Pa-	2.A/	Pa-	1F	tol-
.	.	8B\L	.	.	.
.	.	8c\J	.	.	.
=82-	=82-	=82-	=82-	=82-	=82-
.	.	1d	.	1A	-lis
2GG,</	-tris	2B,<\	-tris	1G	pec-
2C/	Qui	2c\	Qui	.	.
=83-	=83-	=83-	=83-	=83-	=83-
*	*	*	*	*lig	*
2C/	tol-	2c\	tol-	1G	-ca-
!	!	!LO:SIC:v:t=custos A	!	!	!
2C/	-lis	2c\	-lis	.	.
!	!	!LO:LB:g=original	!	!	!
1D	pec-	1A	pec-	1F	.
*	*	*	*	*Xlig	*
=84-	=84-	=84-	=84-	=84-	=84-
2AA/	-ca-	1A	-ca-	1E	.
2AA/	-ta	.	.	.	.
1BB-X	mun-	2F/	-ta	1D	-ta
.	.	2G/	mun-	.	.
=85-	=85-	=85-	=85-	=85-	=85-
0AA	-di	0A	-di	1E	mun-
.	.	.	.	1E,<	-di
=86-	=86-	=86-	=86-	=86-	=86-
2rBB	.	2.A/	mi-	1D	mi-
2D/	mi-	.	.	.	.
.	.	4B\	-se-	.	.
!LO:SIC:v:t=custos C	!	!	!	!LO:SIC:v:t=custos G	!
1C	-se-	1.c	-re-	1G	-ſe-
!LO:LB:g=original	!	!	!	!LO:LB:g=original	!
=87-	=87-	=87-	=87-	=87-	=87-
2C/	-re-	.	.	1G	-re-
2GG/	-re	2B\	-re	.	.
1D	no-	1A	no-	1F,<	-re
=88-	=88-	=88-	=88-	=88-	=88-
0GG;;	-bis	0B;;	-bis	1G	no-
.	.	.	.	1G,<	-bis
=89-	=89-	=89-	=89-	=89-	=89-
0r	.	1r	.	1B,<	Qui
.	.	2e\	Qui	1E	tol-
.	.	1B\	tol-	.	.
=90-	=90-	=90-	=90-	=90-	=90-
1E	Qui	.	.	1B	-lis
.	.	2e\	-lis	.	.
*	*	*	*	*lig	*
1AA	tol-	2e\	pec-	1c	pec-
!	!	!LO:SIC:v:t=custos e	!	!	!
.	.	1e\	-ca-	.	.
!	!	!LO:PB:g=original	!	!	!
=91-	=91-	=91-	=91-	=91-	=91-
1E	-lis	.	.	1B	.
.	.	2.e\	-ta	.	.
*	*	*	*	*Xlig	*
1F	pec-	.	.	1A	-ca-
.	.	8d\L	.	.	.
.	.	8c\J	.	.	.
.	.	2d\	mun-	.	.
=92-	=92-	=92-	=92-	=92-	=92-
2E\	-ca-	1e	-di	1G,<	-ta
2C/	-ta	.	.	.	.
*lig	*	*	*	*lig	*
1G	mun-	1r	.	1B	mun-
=93-	=93-	=93-	=93-	=93-	=93-
1F	.	2r	.	1A	.
.	.	1A	Su-	.	.
*Xlig	*	*	*	*Xlig	*
1E	-di	.	.	1B,<	-di
!	!	!LO:TX:t=P:problem:♯ below	!	!	!
.	.	2G#X/	-sci-	.	.
=94-	=94-	=94-	=94-	=94-	=94-
!	!	!LO:TX:t=P:problem:♯ below	!	!	!
1r	.	1G#X	-pe	1E	Su-
2r	.	2r	.	1E	-sci-
*	*	*	*ij	*	*
1E\	Su-	1e\	Su-	.	.
=95-	=95-	=95-	=95-	=95-	=95-
.	.	.	.	1B,<	-pe
2E\	-sci-	2e\	-sci-	.	.
2AA/	-pe	1e	-pe	1c	de-
*	*	*	*Xij	*	*
1AA/	Su-	.	.	.	.
=96-	=96-	=96-	=96-	=96-	=96-
!	!	!	!	!LO:SIC:v:t=custos G	!
.	.	1c	Su-	1A	-pre-
!LO:SIC:v:t=custos C	!	!	!	!	!
2AA/	-sci-	.	.	.	.
!LO:PB:g=original	!	!	!	!LO:LB:g=original	!
1C	-pe	2c\	-sci-	1G	-ca-
.	.	2c\	-pe	.	.
=97-	=97-	=97-	=97-	=97-	=97-
2D/	de-	2A/	de-	1F	-ti-
2D/	-pre-	2A/	-pre-	.	.
2.AA/	-ca-	2.e\	-ca-	1A	-o-
!	!	!LO:SIC:v:t=custos c	!	!	!
4BBny/	-ti-	4d\	-ti-	.	.
!	!	!LO:LB:g=original	!	!	!
=98-	=98-	=98-	=98-	=98-	=98-
2C/	-o-	2c\	-o-	1A,<	-nem
2D/	-nem	2A/	-nem	.	.
1GG	no-	1B	no-	1G	no-
=99-	=99-	=99-	=99-	=99-	=99-
1C;<	-stram	1c;;	-stram	1G,<	-ſtram
*	*	*	*	*lig	*
1AA	Qui	0A	Qui	1E	Qui
=100-	=100-	=100-	=100-	=100-	=100-
1D	se-	.	.	1F	.
*	*	*	*	*Xlig	*
*	*	*	*	*lig	*
2AA/	-des	2c\	se-	1E	.
*	*ij	*	*	*	*
2C/	Qui	2Gny/	-des	.	.
=101-	=101-	=101-	=101-	=101-	=101-
*	*	*	*ij	*	*
0GG	se-	1G	Qui	1D	.
*	*	*	*	*Xlig	*
.	.	1G	se-	1B,<	.
=102-	=102-	=102-	=102-	=102-	=102-
*	*	*	*	*lig	*
2C,</	-des	2G/	-des	1c	ſe-
*	*Xij	*	*Xij	*	*
4C/	Qui	4E/	qui	.	.
4D/	.	4F/	.	.	.
4E\	.	4G/	.	1B	.
4F\	.	4A/	.	.	.
4G\	.	4B\	.	.	.
!LO:SIC:v:t=custos F	!	!	!	!	!
4E\	.	4G/	.	.	.
*	*	*	*	*Xlig	*
!LO:LB:g=original	!	!	!	!	!
=103-	=103-	=103-	=103-	=103-	=103-
1F	se-	2.A/	Se-	1A	.
.	.	4B\	.	.	.
!	!	!LO:SIC:v:t=custos c	!	!	!
*	*	*	*	*lig	*
2C/	-des	1c	-des	1G	.
2C/	ad	.	.	.	.
!	!	!LO:LB:g=original	!	!	!
=104-	=104-	=104-	=104-	=104-	=104-
2F\	dex-	2c\	ad	1A	.
4D/	-te-	4f\	dex-	.	.
4F\	-ra(m)	8c\	-te-	.	.
.	.	8d\	-ra(m)	.	.
*	*	*	*	*Xlig	*
0E	Pa-	1e	Pa-	1B,<	des
=105-	=105-	=105-	=105-	=105-	=105-
.	.	1e,<	-tris	1B	ad
*	*	*	*	*lig	*
4AA,</	-tris	4e\	ad	1c	.
*	*ij	*	*	*	*
4A\	Pa-	4c\	dex-	.	.
4F\	.	4A/	-te-	.	.
4A\	.	4c\	-ra(m)	.	.
=106-	=106-	=106-	=106-	=106-	=106-
!	!	!	!	!LO:SIC:v:t=custos d	!
2G\	.	2B\	Pa-	1d,<	.
2F\	.	2.c\	.	.	.
*	*	*	*	*Xlig	*
*	*	*	*	*lig	*
!	!	!	!	!LO:LB:g=original	!
1G	.	.	.	1d	dex-
.	.	8B\L	.	.	.
.	.	8A\J	.	.	.
.	.	2B\	.	.	.
=107-	=107-	=107-	=107-	=107-	=107-
2C,</	-tris	2c,<\	-tris	1c	.
*	*Xij	*	*	*	*
4C/	Pa-	2e\	ad	.	.
4D/	.	.	.	.	.
*	*	*	*	*Xlig	*
*	*	*	*	*lig	*
4E\	.	2e\	dex-	1B	.
4F\	.	.	.	.	.
2G\	.	2d\	-te-	.	.
=108-	=108-	=108-	=108-	=108-	=108-
1C	.	1e	-ra(m)	1c	.
*	*	*	*	*Xlig	*
!LO:SIC:v:t=custos GG	!	!LO:SIC:v:t=custos B	!	!	!
1D	.	1d	Pa-	1A	-te-
!LO:LB:g=original	!	!LO:LB:g=original	!	!	!
=109-	=109-	=109-	=109-	=109-	=109-
2GG/	-tris	1B	-tris	1G,<	-ram
1G	Mi-	.	.	.	.
*	*	*	*	*lig	*
.	.	1r	.	1B	Pa-
2G\	-se-	.	.	.	.
=110-	=110-	=110-	=110-	=110-	=110-
2.F\	-re-	2.c\	Mi-	1A	.
4F\	-re	4d\	-se-	.	.
*	*	*	*	*Xlig	*
0E	no-	2e\	-re-	1B,<	-tris
.	.	2e\	-re	.	.
=111-	=111-	=111-	=111-	=111-	=111-
.	.	1e	no-	1B	Mi-
2AA,</	-bis	2e\	-bis	1c	.
*	*ij	*	*ij	*	*
2A\	Mi-	1e\	Mi-	.	.
=112-	=112-	=112-	=112-	=112-	=112-
2E\	-se-	.	.	1B	-ſe-
2G\	-re-	2d\	-se-	.	.
2D/	-re	2.d\	-re-	1A	-re-
2F\	no-	.	.	.	.
.	.	4c\	-re	.	.
=113-	=113-	=113-	=113-	=113-	=113-
1C,<	-bis	1c	no-	1G	-re
2.D/	Mi-	2A,</	-bis	1F	.
.	.	2.d\	Mi-	.	.
4D/	-se-	.	.	.	.
=114-	=114-	=114-	=114-	=114-	=114-
2.AA/	-re-	.	.	1A	.
.	.	4c\	-se-	.	.
.	.	2.c\	-re-	.	.
4BB/	-re	.	.	.	.
1C	no-	.	.	1G	no-
.	.	4A/	-re	.	.
.	.	2c\	no-	.	.
=115-	=115-	=115-	=115-	=115-	=115-
!LO:SIC:v:t=custos C	!	!	!	!	!
1GG;;	-bis	1B;;	-bis	1G,<	-bis
*	*Xij	*	*Xij	*	*
!LO:LB:g=original	!	!LO:LB:g=original	!	!	!
1C	Quo-	2G/	Quo-	1E	Quo-
.	.	1A\	-ni-	.	.
=116-	=116-	=116-	=116-	=116-	=116-
1D	-ni-	.	.	1F	-ni-
.	.	1B	-am	.	.
!	!	!	!	!LO:SIC:v:t=custos A	!
1E	-am	.	.	1G	-am
.	.	2c\	tu	.	.
!	!	!	!	!LO:LB:g=original	!
=117-	=117-	=117-	=117-	=117-	=117-
1AA	tu	2e\	So-	1A,<	tu
.	.	2e\	-lus	.	.
*	*	*	*	*lig	*
2BB/	So-	2rc	.	1G	So-
2C/	-lus	2c\	Tu	.	.
=118-	=118-	=118-	=118-	=118-	=118-
1D	San-	2.A/	So-	1F	.
.	.	4B\	-lus	.	.
*	*	*	*	*Xlig	*
*	*	*	*	*lig	*
2C,</	-ct(us)	2c\	San-	1E	.
2C/	tu	2G/	-ctus	.	.
=119-	=119-	=119-	=119-	=119-	=119-
*	*	*	*ij	*	*
2FF/	So-	1A	So-	1F	.
2FF/	-lus	.	.	.	.
*	*	*	*	*Xlig	*
1BB-X	San-	2.F/	-lus	1D,<	-lus
.	.	4G/	.	.	.
=120-	=120-	=120-	=120-	=120-	=120-
*	*	*	*	*lig	*
0AA	.	0A	San-	1E	San-
.	.	.	.	1F	.
*	*	*	*	*Xlig	*
=121-	=121-	=121-	=121-	=121-	=121-
0GG	-ctus	0D	-ctus	1G,<	-ctus
*	*	*	*Xij	*	*
.	.	.	.	1B	Tu
=122-	=122-	=122-	=122-	=122-	=122-
1rD	.	1rA	.	1E	So-
!	!	!LO:SIC:v:t=custos e	!	!	!
1E	tu	1e	Tu	1B,<	-lus
!	!	!LO:LB:g=original	!	!	!
=123-	=123-	=123-	=123-	=123-	=123-
*	*	*	*	*lig	*
1AA	so-	1.e	So-	1c	Do-
1E	.	.	.	1B	.
.	.	2e\	-lus	.	.
*	*	*	*	*Xlig	*
=124-	=124-	=124-	=124-	=124-	=124-
*	*	*	*	*lig	*
1F	-lus	2c\	Do-	1A	.
.	.	2d\	-mi-	.	.
!LO:SIC:v:t=custos D	!	!	!	!	!
1E	Do-	2e\	-nus	1G	.
.	.	2c\	tu	.	.
*	*	*	*	*Xlig	*
=125-	=125-	=125-	=125-	=125-	=125-
*lig	*	*	*	*lig	*
1D	-mi-	2A/	so-	1F	-mi-
.	.	2B\	-lus	.	.
1C	.	1.c	al-	1G	.
*Xlig	*	*	*	*Xlig	*
=126-	=126-	=126-	=126-	=126-	=126-
!	!	!	!	!LO:SIC:v:t=custos d	!
2C/	-nus	.	.	1G,<	-nus
2G\	tu	4B\	.	.	.
.	.	4A/	.	.	.
!	!	!	!	!LO:PB:g=original	!
2G\	so-	1B	.	1d	tu
2G\	-lus	.	.	.	.
=127-	=127-	=127-	=127-	=127-	=127-
*lig	*	*	*	*lig	*
1C	al-	2.c\	.	1e	.
.	.	4B\	.	.	.
1D	.	1A	.	1d,<	.
*Xlig	*	*	*	*Xlig	*
=128-	=128-	=128-	=128-	=128-	=128-
2.E\	-tiſ-	1e	-tiſ-	1G	So-
4F\	.	.	.	.	.
2G\	.	2d\	-si-	1B,<	-lus
!	!	!LO:SIC:v:t=custos A	!	!	!
2E\	.	2G/	-mus	.	.
!	!	!LO:PB:g=original	!	!	!
=129-	=129-	=129-	=129-	=129-	=129-
1D	si-	2A\	Je-	1d	al-
.	.	2B\	-su	.	.
*	*	*	*	*lig	*
2C/	-mus	1c	Chri-	1e	-tiſ-
1c\	Je-	.	.	.	.
=130-	=130-	=130-	=130-	=130-	=130-
.	.	1G	-ſte	1d	.
2B\	-su	.	.	.	.
*	*	*	*	*Xlig	*
1A	Chri-	2r	.	1c	.
.	.	1e\	Je-	.	.
=131-	=131-	=131-	=131-	=131-	=131-
1G	-ste	.	.	1B	-si-
.	.	1d	-su	.	.
!LO:SIC:v:t=custos G	!	!	!	!	!
1r	.	.	.	1A,<	-mus
!	!	!LO:TX:t=P:problem:♯ above	!	!	!
.	.	2c#X\	Chri-	.	.
!LO:LB:g=original	!	!	!	!	!
=132-	=132-	=132-	=132-	=132-	=132-
1G	Je-	2d\	.	1B	Je-
.	.	2G/	-ſte	.	.
*	*	*	*ij	*	*
2F\	-ſu	2cny\	Je-	1c	-su
2E\	Chri-	2G/	-su	.	.
=133-	=133-	=133-	=133-	=133-	=133-
*	*	*	*	*lig	*
1D	.	1A	Chri-	1d	Chri-
0GG;	-ſte	0G;;	-ſte	1B	.
*	*	*	*Xij	*Xlig	*
=134-	=134-	=134-	=134-	=134-	=134-
.	.	.	.	1G	-ſte
2G\	Cum	2.B\	Cum	1d	Cum
1G\	San-	.	.	.	.
.	.	4c\	.	.	.
=135-	=135-	=135-	=135-	=135-	=135-
*	*	*	*	*lig	*
.	.	2d\	San-	1B	San-
!	!	!LO:SIC:v:t=custos A	!	!	!
2G\	-cto	2G/	.	.	.
!	!	!LO:LB:g=original	!	!	!
2F\	Spi-	4A/	-cto	1c	.
.	.	4B\	.	.	.
2A\	-ri-	2.c\	Spi-	.	.
*	*	*	*	*Xlig	*
=136-	=136-	=136-	=136-	=136-	=136-
!	!	!	!	!LO:SIC:v:t=custos e	!
1G	-tu	.	.	1d	-cto
.	.	8B\L	.	.	.
.	.	8A\J	.	.	.
.	.	2B\	.	.	.
*	*	*	*	*lig	*
!	!	!	!	!LO:LB:g=original	!
2C/	[[Cum]]	1c	-ri-	1e	Spi-
1c\	Spi-	.	.	.	.
=137-	=137-	=137-	=137-	=137-	=137-
.	.	1G	-tu	1d	.
2B\	-ri-	.	.	.	.
*	*	*	*	*Xlig	*
*	*	*	*	*lig	*
1A	.	2r	.	1c	.
.	.	2c\	in	.	.
=138-	=138-	=138-	=138-	=138-	=138-
1G,<	-tu	2.d\	glo-	1B	.
.	.	4d\	-ri-	.	.
*	*	*	*	*Xlig	*
1C	in	2e\	-a	1c	-ri-
.	.	2.c\	glo-	.	.
=139-	=139-	=139-	=139-	=139-	=139-
1.G	glo-	.	.	1d,<	-tu
.	.	8B\L	.	.	.
.	.	8A\J	.	.	.
.	.	4B\	.	.	.
.	.	4c\	.	.	.
.	.	2.d\	.	1B	in
!LO:SIC:v:t=custos D	!	!	!	!	!
2G\	-ri-	.	.	.	.
.	.	4G/	-ri-	.	.
!LO:PB:g=original	!	!	!	!	!
=140-	=140-	=140-	=140-	=140-	=140-
!	!	!LO:SIC:v:t=custos f	!	!	!
1D	-a	1A	-a	1d	glo-
!	!	!LO:LB:g=original	!	!	!
2.A\	De-	2rc	.	1c	.
.	.	2f\	De-	.	.
4F\	-i	.	.	.	.
=141-	=141-	=141-	=141-	=141-	=141-
2G\	Pa-	2d\	-i	1B	.
2E\	-tris	2.e\	Pa-	.	.
1F	A-	.	.	1A	.
.	.	4c\	.	.	.
.	.	1c\	-tris	.	.
=142-	=142-	=142-	=142-	=142-	=142-
*	*	*	*	*lig	*
1C	-men	.	.	1G	-[ri]-
.	.	2c\	A-	.	.
2rBB	.	1.c	-men	1A	.
*	*ij	*	*	*	*
1AA/	De-	.	.	.	.
*	*	*	*ij	*Xlig	*
=143-	=143-	=143-	=143-	=143-	=143-
.	.	.	.	1E	-a
2AA/	-i	1A	A-	.	.
*	*	*	*	*lig	*
2.FF/	Pa-	.	.	1F	.
.	.	2.A/	-men	.	.
4GG/	.	.	.	.	.
=144-	=144-	=144-	=144-	=144-	=144-
4AA/	.	.	.	1E,<	.
4BB/	.	8G/L	.	.	.
.	.	8F/J	.	.	.
2C/	-tris	4E/	.	.	.
.	.	4F/	.	.	.
*	*	*	*	*Xlig	*
*	*	*	*	*lig	*
1GG	A-	1G	A-	1D	De-
=145-	=145-	=145-	=145-	=145-	=145-
2C,</	-men	1G	-men	1E	.
*	*Xij	*	*	*	*
1C	De-	.	.	.	.
*	*	*	*Xij	*Xlig	*
*	*	*	*	*lig	*
.	.	1.c	De-	1G	.
!LO:SIC:v:t=custos F	!	!	!	!	!
2C/	-i	.	.	.	.
!LO:LB:g=original	!	!	!	!	!
=146-	=146-	=146-	=146-	=146-	=146-
2F\	Pa-	.	.	1A	.
2D/	-tris	2d\	-i	.	.
*	*	*	*	*Xlig	*
!	!	!	!	!LO:SIC:v:t=custos F	!
2E\	A-	2B\	Pa-	1G	.
2C/	-men	2c\	-tris	.	.
!	!	!	!	!LO:LB:g=original	!
=147-	=147-	=147-	=147-	=147-	=147-
!	!	!LO:SIC:v:t=custos c	!	!	!
1D	A-	1A	A-	1F	.
!	!	!LO:LB:g=original	!	!	!
1AA	-men	1c	-men	1E	.
=148-	=148-	=148-	=148-	=148-	=148-
2FF/	De-	1A	.	1F,<	-i
2FF/	-i	.	.	.	.
*	*	*	*ij	*lig	*
1BB-X	Pa-	2.F/	A-	1D	Pa-
.	.	4G/	.	.	.
=149-	=149-	=149-	=149-	=149-	=149-
1AA	-tris	2A/	.	1E	.
.	.	2A/	-men	.	.
*	*	*	*	*Xlig	*
1GG	A-	2.D/	A-	1G	.
.	.	4E/	.	.	.
=150-	=150-	=150-	=150-	=150-	=150-
*	*	*	*	*lig	*
2FF/	-men	4F/	.	1A	.
.	.	4G/	.	.	.
*	*ij	*	*	*	*
2F\	De-	2A/	.	.	.
2G\	-i	2G/	-men	1B	.
1E\	Pa-	1G/	A-	.	.
*	*	*	*	*Xlig	*
=151-	=151-	=151-	=151-	=151-	=151-
*	*	*	*	*lig	*
.	.	.	.	1c	.
2F\	-tris	2A/	.	.	.
!LO:SIC:v:t=custos D	!	!	!	!	!
1G	A-	2B\	.	1B	.
.	.	2G/	.	.	.
*	*	*	*	*Xlig	*
!LO:LB:g=original	!	!	!	!	!
=152-	=152-	=152-	=152-	=152-	=152-
*	*	*	*	*lig	*
2D,</	-men	2d\	-men	1A	-tris
*	*Xij	*	*Xij	*	*
1F	De-	2A/	De-	.	.
.	.	2B\	-i	1G,<	.
2E\	-i	2c\	Pa-	.	.
*	*	*	*	*Xlig	*
=153-	=153-	=153-	=153-	=153-	=153-
*	*	*	*	*lig	*
0D	Pa-	0d	.	1F	A-
.	.	.	.	1A	.
*	*	*	*	*Xlig	*
=154-	=154-	=154-	=154-	=154-	=154-
*	*	*	*	*lig	*
!	!	!LO:SIC:v:t=custos d	!	!	!
1G	-tris	1d	-tris.	1B-X	.
!	!	!LO:LB:g=original	!	!	!
2.D/	A-	2r	.	1A	.
.	.	1d\	De-	.	.
4C/	.	.	.	.	.
*	*	*	*	*Xlig	*
=155-	=155-	=155-	=155-	=155-	=155-
*	*	*	*	*lig	*
2BBny/	.	.	.	1G	.
2C/	.	1c	-i	.	.
1AA	.	.	.	1F	.
.	.	2A/	Pa-	.	.
*	*	*	*	*Xlig	*
=156-	=156-	=156-	=156-	=156-	=156-
1GG	.	2B\	-tris	[0Gl;;	-men.
.	.	2d\	A-	.	.
1C	.	2G/	-men	.	.
.	.	1c\	A-	.	.
=157-	=157-	=157-	=157-	=157-	=157-
0GGl;;	-men.	.	.	0G]	.
.	.	4B\	.	.	.
.	.	4A/	.	.	.
.	.	1Bl;;	-men.	.	.
==	==	==	==	==	==
*-	*-	*-	*-	*-	*-
!!!system-decoration: [g1]
!!!RDF**kern: > = above
!!!RDF**kern: < = below
!!!RDF**kern: l = terminal long
!!!ENC: Andrzej Kubiczek
!!!END: 2021-03-21
!!!ENC: Krzysztof Stępień
!!!END: 2021-03-06
